X:1
T:Lake Street, LM
T:Lake Street, LM
T:Hart Pease Danks, 1858
T:Public Domain Courtesy of the Cyber Hymnal™
C:Hart Pease Danks, 1858
Z:Public Domain
Z:Courtesy of the Cyber Hymnal™
%%score 1 ( 2 3 )
L:1/8
Q:1/4=95
M:2/4
K:D
V:1 treble 
V:2 bass 
V:3 bass 
V:1
 [DF]2 [FA][DF] | [CE]3 [DF] | [EG]2 [CA]2 | [DF]3 [DF] | [GB]2 [GB]2 | [FA]3 [DF] | [EG]2 [DF]2 | %7
 [CE]4 | [DF]2 [FA][DF] | [CE]3 [DF] | [EG]2 [CA]2 | [DF]3 F | [GB]2 [GB]2 | [FA]3 [DF] | %14
 ([CE][DF]) ([FA][EG]) | [DF]4 |] %16
V:2
 [D,A,]2 [D,D][D,A,] | [A,,A,]3 [A,,A,] | [A,,A,]2 [A,,A,]2 | [D,A,]3 [D,A,] | [D,D]2 [D,D]2 | %5
 [D,D]3 [D,A,] | [C,A,]2 [D,A,]2 | [A,,A,]4 | [D,A,]2 [D,D][D,A,] | [A,,A,]3 [A,,A,] | %10
 [A,,A,]2 [A,,A,]2 | [D,A,]3 [D,D] | [G,D]2 [G,D]2 | [D,D]3 [F,A,] | A,2 [A,,A,]2 | [D,A,]4 |] %16
V:3
 x4 | x4 | x4 | x4 | x4 | x4 | x4 | x4 | x4 | x4 | x4 | x4 | x4 | x4 | A,2 x2 | x4 |] %16

